dist/img/hand.svg

<svg width="45" height="46" viewBox="0 0 45 46" fill="none" xmlns="http://www.w3.org/2000/svg">
<path d="M18.9844 10.9329V20.8438H20.3906V10.9329C20.3906 10.2206 20.1867 9.53134 19.8 8.93981L16.5895 4.01494C16.5874 4.01134 16.5839 4.00847 16.5811 4.00488L16.2886 3.55637C16.2127 3.43778 16.1719 3.30194 16.1719 3.16106V2.86566C16.1719 2.47466 16.4834 2.15625 16.8659 2.15625C17.0873 2.15625 17.2976 2.2655 17.4284 2.44806L22.0971 9.01025C22.3608 9.38184 22.5 9.81956 22.5 10.2788V19.1698H23.9062V10.2788C23.9062 9.51481 23.6742 8.78313 23.2341 8.16572L18.5653 1.60281C18.1716 1.04938 17.5359 0.71875 16.8659 0.71875C15.7943 0.71875 14.9175 1.54603 14.7909 2.60763C14.7853 2.60547 14.7811 2.60259 14.7755 2.60116L9.62437 0.84525C9.37898 0.761156 9.12305 0.71875 8.86359 0.71875H8.73562C7.40812 0.71875 6.32812 1.82275 6.32812 3.18047C6.32812 4.15222 6.88922 5.03484 7.75758 5.42944L12.3286 7.50663C12.6949 7.67194 13.005 7.94003 13.2265 8.28L15.1144 11.1744C15.3464 11.5295 15.4688 11.9428 15.4688 12.3704V14.1572L14.5709 12.7801C14.0477 11.9787 13.173 11.5 12.2309 11.5H5.27344C3.33492 11.5 1.75781 13.1122 1.75781 15.0938C1.75781 15.1088 1.75781 15.1239 1.75852 15.139C1.15242 15.2986 0.703125 15.8621 0.703125 16.5312V23.8057C0.703125 24.3218 0.814922 24.8422 1.02656 25.3122L4.57734 33.1761C4.87336 33.8308 5.24602 34.4483 5.68547 35.0089L6.13195 35.5796C7.16484 36.8999 7.73438 38.5581 7.73438 40.25H9.14062C9.14062 38.2325 8.46141 36.2545 7.22953 34.6818L6.78305 34.1112C6.41461 33.6404 6.10172 33.1229 5.85422 32.5737L2.30344 24.7099C2.17688 24.4282 2.10938 24.1155 2.10938 23.8057V16.5312C3.66047 16.5312 4.92188 17.8207 4.92188 19.4062V22.2812C4.92188 22.9562 5.23687 23.6016 5.76562 24.0055L7.17117 25.0837C7.83703 25.594 8.66039 25.875 9.49219 25.875C11.6241 25.875 13.3594 24.1011 13.3594 21.9219V19.0469C13.3594 16.8676 11.6241 15.0938 9.49219 15.0938H3.16406C3.16406 13.9049 4.11047 12.9375 5.27344 12.9375H12.2309C12.702 12.9375 13.1393 13.1768 13.4009 13.5779L15.2318 16.3861C15.3872 16.624 15.4688 16.9 15.4688 17.1839V20.8438H16.875V17.1839V12.3704C16.875 11.6581 16.6711 10.9688 16.2844 10.3773L14.3965 7.48291C14.0266 6.91581 13.5084 6.46947 12.8988 6.19275L8.32852 4.11556C7.96781 3.95169 7.73438 3.58441 7.73438 3.18047C7.73438 2.61553 8.18367 2.15625 8.73633 2.15625H8.8643C8.97188 2.15625 9.07945 2.1735 9.1807 2.208L14.3311 3.96319C14.7727 4.11341 15.158 4.41384 15.4167 4.80916L17.6962 8.30444L18.63 9.73619C18.862 10.092 18.9844 10.5053 18.9844 10.9329ZM9.49219 16.5312C10.8492 16.5312 11.9531 17.6597 11.9531 19.0469V21.9219C11.9531 23.3091 10.8492 24.4375 9.49219 24.4375C8.96273 24.4375 8.43891 24.2585 8.01492 23.9344L6.60867 22.8562C6.43289 22.7211 6.32812 22.5062 6.32812 22.2812V19.4062C6.32812 18.303 5.92031 17.2946 5.25164 16.5312H9.49219Z" fill="white"/>
<path d="M19.6552 35.5853C19.2101 36.6764 18.9844 37.8307 18.9844 39.0138V40.25H20.3906V39.0138C20.3906 38.0212 20.5805 37.053 20.9531 36.138L22.9282 31.2937L21.6302 30.7402L19.6552 35.5853Z" fill="white"/>
<path d="M21.7969 45.2812H6.32812V39.5312H21.7969V45.2812Z" fill="#E12025"/>
<path d="M32.3438 38.0938C25.7527 38.0938 20.3906 32.6126 20.3906 25.875C20.3906 19.1374 25.7527 13.6562 32.3438 13.6562C38.9348 13.6562 44.2969 19.1374 44.2969 25.875C44.2969 32.6126 38.9348 38.0938 32.3438 38.0938ZM32.3438 17.25C27.6912 17.25 23.9062 21.119 23.9062 25.875C23.9062 30.631 27.6912 34.5 32.3438 34.5C36.9963 34.5 40.7812 30.631 40.7812 25.875C40.7812 21.119 36.9963 17.25 32.3438 17.25Z" fill="#E12025"/>
<path d="M36.7686 21.0544L29.5313 28.4525L27.919 26.8044L26.9248 27.8208L29.5313 30.4852L37.7628 22.0708L36.7686 21.0544Z" fill="white"/>
<path d="M32.3438 33.7813C28.0793 33.7813 24.6094 30.2342 24.6094 25.875C24.6094 24.0099 25.2598 22.1986 26.4403 20.7733L25.368 19.844C23.9723 21.5287 23.2031 23.6706 23.2031 25.875C23.2031 31.027 27.3037 35.2188 32.3438 35.2188C34.5002 35.2188 36.5955 34.4325 38.2437 33.0057L37.3345 31.9097C35.9402 33.1164 34.1684 33.7813 32.3438 33.7813Z" fill="white"/>
<path d="M32.3433 16.5312C30.1868 16.5312 28.0915 17.3176 26.4434 18.7443L27.3525 19.8404C28.7468 18.6336 30.5187 17.9688 32.3433 17.9688C36.6077 17.9688 40.0777 21.5158 40.0777 25.875C40.0777 27.7402 39.4273 29.5514 38.2467 30.9767L39.319 31.906C40.7147 30.2213 41.4839 28.0794 41.4839 25.875C41.4839 20.723 37.3833 16.5312 32.3433 16.5312Z" fill="white"/>
</svg>

<svg xmlns="http://www.w3.org/2000/svg" fill="none" viewBox="0 0 45 46"><path fill="#fff" d="M18.984 10.933v9.91h1.407v-9.91c0-.712-.204-1.402-.591-1.993l-3.21-4.925-.009-.01-.292-.449a.73.73 0 01-.117-.395v-.295c0-.391.311-.71.694-.71.221 0 .432.11.562.292l4.67 6.562c.263.372.402.81.402 1.269v8.89h1.406v-8.89a3.62 3.62 0 00-.672-2.113l-4.669-6.563a2.094 2.094 0 00-1.7-.884c-1.07 0-1.947.827-2.074 1.889l-.016-.007L9.625.845A2.341 2.341 0 008.863.72h-.128c-1.328 0-2.408 1.104-2.408 2.461 0 .972.561 1.855 1.43 2.25l4.57 2.077c.367.165.677.433.899.773l1.887 2.894c.232.356.355.769.355 1.196v1.787l-.898-1.377a2.792 2.792 0 00-2.34-1.28H5.273c-1.938 0-3.515 1.612-3.515 3.594v.045a1.434 1.434 0 00-1.055 1.392v7.275c0 .516.112 1.036.324 1.506l3.55 7.864a8.952 8.952 0 001.108 1.833l.447.57a7.61 7.61 0 011.602 4.671h1.407c0-2.017-.68-3.995-1.911-5.568l-.447-.57a7.493 7.493 0 01-.929-1.538l-3.55-7.864a2.223 2.223 0 01-.195-.904V16.53c1.551 0 2.813 1.29 2.813 2.875v2.875c0 .675.315 1.32.844 1.725l1.405 1.078c.666.51 1.49.791 2.321.791 2.132 0 3.867-1.774 3.867-3.953v-2.875c0-2.18-1.735-3.953-3.867-3.953H3.164c0-1.19.946-2.156 2.11-2.156h6.957c.471 0 .908.239 1.17.64l1.83 2.808c.156.238.238.514.238.798v3.66h1.406V12.37c0-.712-.204-1.401-.59-1.993l-1.889-2.894a3.53 3.53 0 00-1.497-1.29l-4.57-2.077a1.026 1.026 0 01-.595-.936c0-.564.45-1.024 1.002-1.024h.128c.108 0 .215.018.317.052l5.15 1.755c.442.15.827.45 1.086.846l2.28 3.495.933 1.432c.232.356.354.77.354 1.197zM9.492 16.53c1.357 0 2.461 1.129 2.461 2.516v2.875c0 1.387-1.104 2.515-2.46 2.515-.53 0-1.054-.178-1.478-.503l-1.406-1.078a.728.728 0 01-.28-.575v-2.875a4.353 4.353 0 00-1.077-2.875h4.24zM19.655 35.585a9.036 9.036 0 00-.67 3.429v1.236h1.406v-1.236c0-.993.19-1.961.562-2.876l1.975-4.844-1.298-.554-1.975 4.845z"/><path fill="#E12025" d="M21.797 45.281H6.328v-5.75h15.469v5.75zM32.344 38.094c-6.591 0-11.953-5.481-11.953-12.219 0-6.738 5.362-12.219 11.953-12.219 6.59 0 11.953 5.481 11.953 12.219 0 6.738-5.362 12.219-11.953 12.219zm0-20.844c-4.653 0-8.438 3.869-8.438 8.625s3.785 8.625 8.438 8.625c4.652 0 8.437-3.869 8.437-8.625s-3.785-8.625-8.437-8.625z"/><path fill="#fff" d="M36.769 21.054l-7.238 7.399-1.612-1.649-.994 1.017 2.606 2.664 8.232-8.414-.994-1.017z"/><path fill="#fff" d="M32.344 33.781c-4.265 0-7.735-3.547-7.735-7.906a8.01 8.01 0 011.831-5.102l-1.072-.929a9.47 9.47 0 00-2.165 6.031c0 5.152 4.1 9.344 9.14 9.344a9.024 9.024 0 005.9-2.213l-.909-1.096a7.633 7.633 0 01-4.99 1.871zM32.343 16.531a9.024 9.024 0 00-5.9 2.213l.91 1.096a7.633 7.633 0 014.99-1.871c4.265 0 7.735 3.547 7.735 7.906a8.01 8.01 0 01-1.831 5.102l1.072.929a9.47 9.47 0 002.165-6.031c0-5.152-4.1-9.344-9.14-9.344z"/></svg>
